X:1
T:Maalma on hullu
T:(Världen är galen)
S:Framförd av WAO
C:Vilho Ollikainen
R:Humppa
O:Finland
M:2/4
L:1/8
Z:Christian Fürst 2017-11-01
Q:106
K:Am
|E2 A,A,|CD EE|AB cc|BA E2|A2 cc|BA G2|DE FF|GF E2|:E2 DD|EF AA|GF EE|FE CB,|A,B, C>C|DE G>G|FD DD|CB, A,2:|

